src/icons/command-http.svg

<svg enable-background="new 0 0 11 14" viewBox="0 0 11 14" xmlns="http://www.w3.org/2000/svg"><path d="m6.6 0 4.4 4.2v9.1c0 .3-.4.7-.7.7h-9.6c-.3 0-.7-.4-.7-.7v-12.6c0-.4.3-.7.7-.7zm-.7 1.4h-4.4v11.2h8.1v-7.7h-3.7zm.2 4.6c.2 0 .4.1.3.3v.1l-1.3 4.4c0 .1-.2.2-.3.2-.2 0-.3-.1-.3-.3v-.1l1.3-4.4c0-.1.2-.2.3-.2zm-2.3.9c.2 0 .3.1.3.3s0 .2-.1.2l-1.1 1.1 1.1 1c.1.1.1.1.1.2s-.2.3-.3.3-.2 0-.2-.1l-1.4-1.3s0-.1 0-.2 0-.1.1-.2l1.3-1.2c0-.1.1-.1.2-.1zm3.4 0c.1 0 .2 0 .2.1l1.3 1.3c.1 0 .1.1.1.1 0 .1 0 .1-.1.2l-1.3 1.3s-.1 0-.2 0c-.2 0-.3-.1-.3-.3 0-.1 0-.1.1-.2l1.1-1-1.1-1c-.1 0-.1-.1-.1-.2s.2-.3.3-.3z" fill="#4d5969"/></svg>

<svg viewBox="0 0 11 14" xmlns="http://www.w3.org/2000/svg"><path d="M6.6 0L11 4.2v9.1c0 .3-.4.7-.7.7H.7c-.3 0-.7-.4-.7-.7V.7C0 .3.3 0 .7 0zm-.7 1.4H1.5v11.2h8.1V4.9H5.9zM6.1 6c.2 0 .4.1.3.3v.1l-1.3 4.4c0 .1-.2.2-.3.2-.2 0-.3-.1-.3-.3v-.1l1.3-4.4c0-.1.2-.2.3-.2zm-2.3.9c.2 0 .3.1.3.3s0 .2-.1.2L2.9 8.5l1.1 1c.1.1.1.1.1.2s-.2.3-.3.3-.2 0-.2-.1L2.2 8.6v-.2c0-.1 0-.1.1-.2L3.6 7c0-.1.1-.1.2-.1zm3.4 0c.1 0 .2 0 .2.1l1.3 1.3c.1 0 .1.1.1.1 0 .1 0 .1-.1.2L7.4 9.9h-.2c-.2 0-.3-.1-.3-.3 0-.1 0-.1.1-.2l1.1-1-1.1-1c-.1 0-.1-.1-.1-.2s.2-.3.3-.3z" fill="#4d5969"/></svg>
